icons/solid/briefcase.svg

<svg width="24" height="24" viewBox="0 0 24 24" fill="none" xmlns="http://www.w3.org/2000/svg">
<path fill-rule="evenodd" clip-rule="evenodd" d="M17 5V6H19C20.6569 6 22 7.34315 22 9V12H17V11C17 10.4477 16.5523 10 16 10C15.4477 10 15 10.4477 15 11V12H9V11C9 10.4477 8.55228 10 8 10C7.44772 10 7 10.4477 7 11V12H2V9C2 7.34315 3.34315 6 5 6H7V5C7 3.34315 8.34315 2 10 2H14C15.6569 2 17 3.34315 17 5ZM15 15V14H9V15C9 15.5523 8.55228 16 8 16C7.44772 16 7 15.5523 7 15V14H2V19C2 20.6569 3.34315 22 5 22H19C20.6569 22 22 20.6569 22 19V14H17V15C17 15.5523 16.5523 16 16 16C15.4477 16 15 15.5523 15 15ZM11 4C10.4477 4 10 4.44772 10 5V6H14V5C14 4.44772 13.5523 4 13 4H11Z" fill="currentColor"/>
</svg>

<svg width="24" height="24" fill="none" xmlns="http://www.w3.org/2000/svg"><path fill-rule="evenodd" clip-rule="evenodd" d="M17 5v1h2a3 3 0 013 3v3h-5v-1a1 1 0 10-2 0v1H9v-1a1 1 0 10-2 0v1H2V9a3 3 0 013-3h2V5a3 3 0 013-3h4a3 3 0 013 3zm-2 10v-1H9v1a1 1 0 11-2 0v-1H2v5a3 3 0 003 3h14a3 3 0 003-3v-5h-5v1a1 1 0 11-2 0zM11 4a1 1 0 00-1 1v1h4V5a1 1 0 00-1-1h-2z" fill="currentColor"/></svg>
